css/images/pokedex/type-poison.svg

<svg xmlns="http://www.w3.org/2000/svg" viewBox="0 0 16.66 24"><g data-name="Layer 2"><path d="M10.53 3.57a1.34 1.34 0 0 1-.18-.71v-1.8C10.35.47 10 0 9.61 0H7c-.41 0-.74.47-.74 1.06v1.8a1.28 1.28 0 0 1-.26.71c-1 1.65-6 9.49-6 11s4.93 7.78 6 9.14a.6.6 0 0 0 .5.29h3.56a.65.65 0 0 0 .5-.27c1.09-1.41 6.1-7.9 6.1-9.13s-5.07-9.36-6.13-11.03zM11 16.1a.48.48 0 0 1-.68 0l-1.99-1.94-1.94 1.94a.48.48 0 1 1-.68-.68l1.94-1.94-1.94-1.94a.48.48 0 0 1 .68-.68l1.94 1.94 1.94-1.94a.48.48 0 0 1 .68.68L9 13.48l2 1.94a.48.48 0 0 1 0 .68z" data-name="FINISHED ICONS"/></g></svg>

<svg xmlns="http://www.w3.org/2000/svg" viewBox="0 0 16.66 24"><title>Poison</title><g id="Layer_2" data-name="Layer 2"><g id="FINISHED_ICONS" data-name="FINISHED ICONS"><g id="Poison"><path d="M10.53,3.57a1.34,1.34,0,0,1-.18-.71V1.06C10.35.47,10,0,9.61,0H7c-.41,0-.74.47-.74,1.06v1.8A1.28,1.28,0,0,1,6,3.57c-1,1.65-6,9.49-6,11s4.93,7.78,6,9.14A.6.6,0,0,0,6.5,24h3.56a.65.65,0,0,0,.5-.27c1.09-1.41,6.1-7.9,6.1-9.13S11.59,5.24,10.53,3.57ZM11,16.1a.48.48,0,0,1-.68,0L8.33,14.16,6.39,16.1a.48.48,0,1,1-.68-.68l1.94-1.94L5.71,11.54a.48.48,0,0,1,.68-.68L8.33,12.8l1.94-1.94a.48.48,0,0,1,.68.68L9,13.48,11,15.42A.48.48,0,0,1,11,16.1Z"/></g></g></g></svg>
